svg/u1f6ab.svg

<svg viewBox="0 0 128 128" xmlns="http://www.w3.org/2000/svg">
  <path d="M64,4C30.9,4,4,30.9,4,64s26.9,60,60,60s60-26.9,60-60S97.1,4,64,4z M114,64c0,12-4.2,23-11.3,31.6 L32.4,25.3C41,18.2,52,14,64,14C91.6,14,114,36.4,114,64z M14,64c0-12,4.2-23,11.3-31.6l70.3,70.3C87,109.8,76,114,64,114 C36.4,114,14,91.6,14,64z" fill="#CC3333"/>
  <path d="M60.1,7C47,7,35,11.5,25.4,19l-0.1-0.1L24.2,20C11.9,30.3,4,45.8,4,63.1c0,31,25.1,56.1,56.1,56.1 s56.1-25.1,56.1-56.1S91.1,7,60.1,7z M32.4,25.3C41,18.2,52,14,64,14c27.6,0,50,22.4,50,50c0,12-4.2,23-11.3,31.6l0,0l-70.6-70 L32.4,25.3z M14,64c0-11.8,4.1-22.7,11-31.2l70.6,69.9C87,109.8,76,114,64,114C36.4,114,14,91.6,14,64z" fill="#F44336"/>
  <path d="M45,10.9c1.7-0.4,4.2-1.6,5.9-1.1c1,0.3,1.9,1.5,1.5,2.5c-0.3,0.8-1.1,1.3-2,1.5 c-4.1,1.1-7.7,2.3-11.3,4.1C32,21.6,25.6,27.2,21,33.7c-1.9,2.7-3.4,5.5-5.8,7.8c-0.2,0.2-0.5,0.4-0.8,0.4c-0.2,0-0.4,0-0.5-0.1 c-1.2-0.5-1.4-1.1-1.2-2.3c0.2-1,0.5-2,1-2.9c0.9-1.8,2.2-3.4,3.3-5.1c1.9-2.9,4.1-5.6,6.6-8C30.4,17.2,39.2,12.4,45,10.9z" fill="#FF8A80"/>
  <polygon points="32.4,25.3 30.4,27.3 101.5,98.4 103.3,96.2 " fill="#CC3333"/>
</svg>

<svg viewBox="0 0 128 128" xmlns="http://www.w3.org/2000/svg">
  <defs/>
  <path d="M64,4 C30.9,4 4,30.9 4,64 C4,97.1 30.9,124 64,124 C97.1,124 124,97.1 124,64 C124,30.9 97.1,4 64,4 Z M114,64 C114,76 109.8,87 102.7,95.6 L32.4,25.3 C41,18.2 52,14 64,14 C91.6,14 114,36.4 114,64 Z M14,64 C14,52 18.2,41 25.3,32.4 L95.6,102.7 C87,109.8 76,114 64,114 C36.4,114 14,91.6 14,64 Z" fill="#CC3333"/>
  <path d="M60.1,7 C47,7 35,11.5 25.4,19 L25.3,18.9 L24.2,20 C11.9,30.3 4,45.8 4,63.1 C4,94.1 29.1,119.2 60.1,119.2 C91.1,119.2 116.2,94.1 116.2,63.1 C116.2,32.1 91.1,7 60.1,7 Z M32.4,25.3 C41,18.2 52,14 64,14 C91.6,14 114,36.4 114,64 C114,76 109.8,87 102.7,95.6 L102.7,95.6 L32.1,25.6 L32.4,25.3 Z M14,64 C14,52.2 18.1,41.3 25,32.8 L95.6,102.7 C87,109.8 76,114 64,114 C36.4,114 14,91.6 14,64 Z" fill="#F44336"/>
  <path d="M45,10.9 C46.7,10.5 49.2,9.3 50.9,9.8 C51.9,10.1 52.8,11.3 52.4,12.3 C52.1,13.1 51.3,13.6 50.4,13.8 C46.3,14.9 42.7,16.1 39.1,17.9 C32,21.6 25.6,27.2 21,33.7 C19.1,36.4 17.6,39.2 15.2,41.5 C15,41.7 14.7,41.9 14.4,41.9 C14.2,41.9 14,41.9 13.9,41.8 C12.7,41.3 12.5,40.7 12.7,39.5 C12.9,38.5 13.2,37.5 13.7,36.6 C14.6,34.8 15.9,33.2 17,31.5 C18.9,28.6 21.1,25.9 23.6,23.5 C30.4,17.2 39.2,12.4 45,10.9 Z" fill="#FF8A80"/>
  <path d="M32.4,25.3 L30.4,27.3 L101.5,98.4 L103.3,96.2 Z" fill="#CC3333"/>
</svg>
